WindowsPhone/svg/appbar.fullscreen.svg

<?xml version="1.0" encoding="UTF-8" standalone="no"?>
<svg
   xmlns:dc="http://purl.org/dc/elements/1.1/"
   xmlns:cc="http://creativecommons.org/ns#"
   xmlns:rdf="http://www.w3.org/1999/02/22-rdf-syntax-ns#"
   xmlns:svg="http://www.w3.org/2000/svg"
   xmlns="http://www.w3.org/2000/svg"
   xmlns:sodipodi="http://sodipodi.sourceforge.net/DTD/sodipodi-0.dtd"
   xmlns:inkscape="http://www.inkscape.org/namespaces/inkscape"
   version="1.1"
   width="76"
   height="76"
   viewBox="0 0 76.00 76.00"
   enable-background="new 0 0 76.00 76.00"
   xml:space="preserve"
   id="svg2"
   inkscape:version="0.91 r13725"
   sodipodi:docname="appbar.fullscreen.svg"><metadata
     id="metadata10"><rdf:RDF><cc:Work
         rdf:about=""><dc:format>image/svg+xml</dc:format><dc:type
           rdf:resource="http://purl.org/dc/dcmitype/StillImage" /></cc:Work></rdf:RDF></metadata><defs
     id="defs8" /><sodipodi:namedview
     pagecolor="#ffffff"
     bordercolor="#666666"
     borderopacity="1"
     objecttolerance="10"
     gridtolerance="10"
     guidetolerance="10"
     inkscape:pageopacity="0"
     inkscape:pageshadow="2"
     inkscape:window-width="1148"
     inkscape:window-height="649"
     id="namedview6"
     showgrid="false"
     inkscape:zoom="3.1052632"
     inkscape:cx="-14.330508"
     inkscape:cy="38.000001"
     inkscape:window-x="712"
     inkscape:window-y="227"
     inkscape:window-maximized="0"
     inkscape:current-layer="layer1" /><g
     inkscape:groupmode="layer"
     id="layer1"
     inkscape:label="active"
     style="display:inline"><path
       style="fill:#000000;fill-opacity:1;stroke-width:0.2;stroke-linejoin:round"
       d="M 44.5,19 58,19 58,32.75 53,37.5 53,28 37.75,43.25 34,39.5 49.5,24 l -10,0 5,-5 z m -24.5,8 22.5,0 -5,5 -12.5,0 0,20 20,0 0,-11.5 5,-5 0,21.5 -30,0 0,-30 z"
       id="path4"
       inkscape:connector-curvature="0" /></g><g
     inkscape:groupmode="layer"
     id="layer2"
     inkscape:label="inactive"
     style="display:none"><path
       style="fill:#9b9b9b;fill-opacity:1;stroke-width:0.2;stroke-linejoin:round"
       id="path3340"
       d="M 44.5,19 58,19 58,32.75 53,37.5 53,28 37.75,43.25 34,39.5 49.5,24 l -10,0 5,-5 z m -24.5,8 22.5,0 -5,5 -12.5,0 0,20 20,0 0,-11.5 5,-5 0,21.5 -30,0 0,-30 z"
       inkscape:connector-curvature="0" /></g><g
     inkscape:groupmode="layer"
     id="layer3"
     inkscape:label="pressed"
     style="display:none"><path
       inkscape:connector-curvature="0"
       d="M 44.5,19 58,19 58,32.75 53,37.5 53,28 37.75,43.25 34,39.5 49.5,24 l -10,0 5,-5 z m -24.5,8 22.5,0 -5,5 -12.5,0 0,20 20,0 0,-11.5 5,-5 0,21.5 -30,0 0,-30 z"
       id="path3337"
       style="display:inline;fill:#ffffff;fill-opacity:1;stroke-width:0.2;stroke-linejoin:round" /></g></svg>

﻿<?xml version="1.0" encoding="utf-8"?>
<!DOCTYPE svg PUBLIC "-//W3C//DTD SVG 1.1//EN" "http://www.w3.org/Graphics/SVG/1.1/DTD/svg11.dtd">
<svg xmlns="http://www.w3.org/2000/svg" xmlns:xlink="http://www.w3.org/1999/xlink" version="1.1" baseProfile="full" width="76" height="76" viewBox="0 0 76.00 76.00" enable-background="new 0 0 76.00 76.00" xml:space="preserve">
	<path fill="#000000" fill-opacity="1" stroke-width="0.2" stroke-linejoin="round" d="M 44.5,19L 58,19L 58,32.75L 53,37.5L 53,28L 37.75,43.25L 34,39.5L 49.5,24L 39.5,24L 44.5,19 Z M 20,27L 42.5,27L 37.5,32L 25,32L 25,52L 45,52L 45,40.5L 50,35.5L 50,57L 20,57L 20,27 Z "/>
</svg>
